icons/selection-manager-24.svg

<?xml version="1.0" encoding="UTF-8"?><svg id="icons" xmlns="http://www.w3.org/2000/svg" viewBox="0 0 24 24"><defs><style>.cls-1{fill:none;}.cls-1,.cls-2{stroke-width:0px;}.cls-2{fill-rule:evenodd;}</style></defs><path class="cls-2" d="M3,7h14v5.19055l1,.72961V2H2v18h10v-1H3V7ZM3,3h14v3H3v-3ZM23.26611,18l-10.26611-7.49048v12.65991l2.78613-3.81958,2.26624,4.62067,2.89355-1.45557-2.18909-4.51495h4.50928ZM19.61621,22.06445l-1.11035.55859-2.55176-5.20117-1.9541,2.67969v-7.62402l6.19824,4.52246h-3.03809l2.45605,5.06445Z"/><rect class="cls-1" width="24" height="24"/></svg>

<svg xmlns="http://www.w3.org/2000/svg" viewBox="0 0 24 24"><path d="M3 7h14v5.19l1 .73V2H2v18h10v-1H3V7zm0-4h14v3H3V3zm20.266 15L13 10.51v12.66l2.786-3.82 2.266 4.62 2.894-1.455L18.756 18h4.51zm-3.65 4.064l-1.11.559-2.552-5.201L14 20.102v-7.624L20.198 17H17.16l2.456 5.064z" fill-rule="evenodd" stroke-width="0"/><path stroke-width="0" fill="none" d="M0 0h24v24H0z"/></svg>
